X:1
T:Title
%%score { ( 1 4 ) | ( 2 3 ) }
L:1/8
M:4/4
K:Eb
V:1 treble nm="Grand Piano"
V:4 treble 
V:2 bass 
V:3 bass 
V:1
 z4 z2[Q:1/4=94] E>F | G2 B2 A2 c2 | B<[Ge]- [Ge]c B2 E>F | G<B- BE [EG]2 [DF]2 | E6 E>F | %5
 G2 B2 A2 c2 |[M:3/4] B<[Ge]- [Ge]c B2 |[M:1/4] E>F |[M:4/4] G<B B[G,B,E] [B,EG]2 [A,DF]2 | %9
[M:3/4] [G,E]6 |[M:1/4] [Ge]>[Ge] |[M:4/4] [Ad]3 [Ad] [Ac]3 [Ad] | [Gc]2 [GB]2 G2 E>F | z4 z2 B2 | %14
 F6 E>F | G2 B2 A2 c2 | B<[Ge]- [Ge]c B2 E>F | z/ B3/2- B z z4 |[M:3/4] E6 |] %19
V:2
 z4 z2 [E,G,]>[E,A,E] | [E,B,E]2 [E,G,E]2 [E,A,C]2 [E,A,E]2 | %2
 [E,G,E]<[E,B,]- [E,B,][E,A,E] [E,G,E]2 [E,G,]>[E,A,E] | %3
 [E,B,E]<[E,G,E]- [E,G,E][E,G,B,] [B,,B,]2 [B,,A,]2 | [E,G,]6 [E,G,]>[E,A,E] | %5
 [E,B,E]2 [E,G,E]2 [E,CE]2 [E,A,E]2 |[M:3/4] [E,G,E]<[E,B,]- [E,B,][E,A,E] [E,G,E]2 | %7
[M:1/4] [E,G,]>[E,A,E] |[M:4/4] [E,B,E]<E EE, B,,2 B,,2 |[M:3/4] E,6 |[M:1/4] [E,B,]>[E,B,] | %11
[M:4/4] [F,B,]3 [F,B,] [B,D]3 [B,D] | [E,E]2 [E,E]2 [E,B,E]2 [E,G,]>[E,A,E] | %13
 [E,B,E]2 [E,G,E]2 [E,A,E]2 E-[G,E] | [B,D]6 [E,G,]>[E,A,E] | [E,B,E]2 [E,G,E]2 [E,CE]2 [E,A,E]2 | %16
 [E,G,E]<[E,B,]- [E,B,][E,A,E] [E,G,E]2 [E,G,]>[E,A,E] | [E,B,E]<E- E-[E,G,E] [B,,B,]2 [B,,A,]2 | %18
[M:3/4] [E,G,]6 |] %19
V:3
 x8 | x8 | x8 | x8 | x8 | x8 |[M:3/4] x6 |[M:1/4] x2 |[M:4/4] z/ [E,G,]3/2- [E,G,] z z4 | %9
[M:3/4] x6 |[M:1/4] x2 |[M:4/4] x8 | x8 | z4 z2 .[E,G,]2 | x8 | x8 | x8 | %17
 z/ [E,G,]3/2- [E,G,] z z4 |[M:3/4] x6 |] %19
V:4
 x8 | x8 | x8 | x8 | x8 | x8 |[M:3/4] x6 |[M:1/4] x2 |[M:4/4] x8 |[M:3/4] x6 |[M:1/4] x2 | %11
[M:4/4] x8 | x8 | G2 B2 c2 z B, | x8 | x8 | x8 | .G2 FB, [EG]2 [DF]2 |[M:3/4] x6 |] %19

